img/servicios-comerciales-icon.svg

<svg width="45" height="55" viewBox="0 0 45 55" fill="none" xmlns="http://www.w3.org/2000/svg">
<path d="M3.834 2.772C4.30913 1.9302 4.99568 1.23046 5.82408 0.74366C6.65249 0.256864 7.59332 0.000312697 8.55124 0H36.4525C37.4105 0.000312697 38.3513 0.256864 39.1797 0.74366C40.0081 1.23046 40.6946 1.9302 41.1698 2.772L44.2757 8.272C46.0365 11.3905 44.4088 15.1552 41.3138 16.2112C41.3274 16.4367 41.3247 16.6623 41.3084 16.8905L38.9796 49.8905C38.882 51.2781 38.2685 52.5767 37.2626 53.5248C36.2567 54.4729 34.9332 55 33.5586 55H11.4425C10.0679 55 8.74435 54.4729 7.73846 53.5248C6.73256 52.5767 6.11903 51.2781 6.02143 49.8905L3.6927 16.8905C3.67631 16.6645 3.67359 16.4376 3.68455 16.2112C0.592254 15.1552 -1.03541 11.3905 0.722685 8.272L3.83128 2.772H3.834ZM9.11644 16.5L9.69795 24.75H35.3058L35.8873 16.5H9.11644ZM10.8637 41.25L11.4452 49.5H33.5586L34.1401 41.25H10.8637ZM39.5584 11L36.4525 5.5H8.55124L5.44536 11H39.5584Z" fill="#C3B214"/>
</svg>

<svg width="45" height="55" fill="none" xmlns="http://www.w3.org/2000/svg"><path d="M3.834 2.772A5.468 5.468 0 0 1 5.824.744 5.385 5.385 0 0 1 8.551 0h27.901c.959 0 1.9.257 2.728.744a5.469 5.469 0 0 1 1.99 2.028l3.106 5.5c1.76 3.118.133 6.883-2.962 7.94.013.225.01.45-.006.678l-2.328 33a5.527 5.527 0 0 1-1.717 3.635A5.4 5.4 0 0 1 33.559 55H11.443a5.4 5.4 0 0 1-3.705-1.475 5.527 5.527 0 0 1-1.717-3.634l-2.328-33a5.63 5.63 0 0 1-.008-.68c-3.093-1.056-4.72-4.82-2.962-7.939l3.108-5.5h.003zM9.116 16.5l.582 8.25h25.608l.581-8.25H9.117zm1.748 24.75.581 8.25H33.56l.581-8.25H10.864zM39.558 11l-3.105-5.5H8.55L5.445 11h34.113z" fill="#C3B214"/></svg>
